X:571
T:The yellow goat
T:I have two yellow goats
T:To ladies' eyes
P:The original highland laddie (?)
R:Polka
O:Ireland
D:Begley & Cooney: Meitheal
D:Michael Tubridy: The Eagle's Whistle
B:Kerr's Third, p41
S:My arrangement from Norbeck's files
Z:Transcription, arrangement, chords:Mike Long
M:2/4
L:1/8
K:G
"G"D>E GA|B2 AG|"D"BA AG/A/|BA Bd|\
"G"D>E GA|B2 AB/A/|"C"GE ED/E/|[1 GE EG:|[2 GE Ed|]
|:"C"ed eg|"G"d2 c>B|"D"BA AG/A/|BA Ad|\
"C"ed eg|d2 c>B|"G"BG G>A|[1 BG Gd:|[2 BG GE|]
